X: 1
T: The Floating Crowbar
R: reel
M: 4/4
L: 1/8
K: Dmix
|: AD (3FED AD (3FED | AD (3FED A2GF | EG~G2 AGED |
EF{A}GF GABd |AD (3FED AD (3FED | AD (3FED G2FG |
~A3B cd{f}ed |1 cAGE D2dB :|2 cAGE D2 (3EFG ||
|: Ad{e}d^c d2 (3B^cd | ea{b}ag ef{a}ge | ~A3B AG (3EFG |
A2GF EF{A}GE |Add^c d2bd | eaag ef{a}ge |
afge d2ed |1 cAGE D2 (3EFG :|2 cAGE D2dB ||


Tune 457	Setting 27076

